X: 1297
T: The Flowing Bowl
R:Reel
N:Collected by Cronin
B:O'Neill's 1297
Z:Transcribed by Trish O'Neil
M:C|
L:1/8
K:D
(ef)|gfed cAAB|cAdB cAAf|gfed cdeg|faged2:|
A2|d2(fd) adfd|d2(fa) gece|d2(fd) adfd|faged2A2|
d2(fd) adfd|d2(fa) gece|Tf4Tg4|faged2|]


